X:1
T:Rejoice in the Lord
T:Rejoice in the Lord
T:Anthem for Four voices
T:Thomas Weelkes
C:Thomas Weelkes
%%score [ 1 2 3 4 ]
L:1/8
Q:1/4=94
M:4/4
K:F
V:1 treble nm="Soprano" snm="S."
V:2 treble nm="Alto" snm="A."
V:3 treble-8 nm="Tenor" snm="T."
V:4 bass nm="Bass" snm="B."
V:1
 G4 (B4 | B2) A2 G4 | ^F4 z2 (=F2 | F2) !tenuto!G2 A3 G | ^F4 z2 A2 | B6 B2 | c2 c2 d2 d2 | %7
w: Re- joice|_ in the|Lord, O|_ ye right- e-|ous: for|it be-|com- eth well the|
 c2 Bc d4 | =B4 z2 (c2 | c2) B2 A2 (B2 | B)A G2 ^F4 | z8 | z2 A2 A2 GG | A4 z2 G2 | G2 ^FF G2 (B2 | %15
w: just to be thank-|ful. Praise|_ the Lord with|_ _ _ harp:||sing psalms un- ti|Him, sing|psalms un- to Him, un-|
 B2) (A2 G4) | ^F4 z2 (F2 | ^F2) F2 G4 | _E2 E2 D4 | D4 (D4 | D4) z4 | z2 d2 d2 c2 | B2 B2 (A4 | %23
w: * to _|Him. For|_ the word|of the Lord|is true|_|and all his|works are faith-|
 G4) ^F2 z2 | z2 c2 c2 B2 | BA (G4 ^F2) | G4 z2 G2 |[Q:1/4=70] G6 (=B2[Q:1/4=65] | %28
w: * ful.|and all his|works are faith- *|ful. A-|men. A-|
[Q:1/4=60] c4)[Q:1/4=40] !fermata!=B4 |] %29
w: * men.|
V:2
 D4 (D4 | D2) F2 (B,2 C2) | D4 z2 (D2 | D2) !tenuto!D2 D2 ^C2 | D4 z2 F2 | G6 F2 | _E2 E2 D2 F2 | %7
w: Re- joice|_ in the _|Lord, O|_ ye right- e-|ous: for|it be-|com- eth well the|
 _E2 GG (G2 ^F2) | G4 z2 (_E2 | _E2) D2 (!tenuto!C2 D2) | (B,2 C2) D4 | z4 z2 D2 | D2 CC D2 B,B, | %13
w: just to be thank- *|ful. Praise|_ the Lord _|with _ harp:|sing|psalms un- to Him, un- to|
 D2 D2 D2 C2 | (D3 C) =B,2 D2 | D4 (D4 | D4) z2 (D2 | D2) D2 D4 | C2 C2 B,4 | A,4 =B,4 | z4 z2 G2 | %21
w: Him, sing psalms un-|to _ Him, un-|to Him|_ For|_ the word|of the Lord|is true,|and|
 G2 F2 (F2 _E2) | D2 D3 E F2 | B,2 C2 D2 =F2 | F2 _E2 D4 | B,2 (C2 D4) | =B,4 z2 (B,2 | %27
w: all his works _|are faith- ful, are|faith- * ful, and|all His works|are faith- *|ful. A-|
 C4) =B,2 (D2 | _E4) !fermata!D4 |] %29
w: * men. A-|* men.|
V:3
 B4 (B4 | B2) d2 G4 | A4 z2 (A2 | A2) !tenuto!D2 F2 E2 | D4 z2 d2 | d4 G2 (B2 | B2) A2 B2 B2 | %7
w: Re- joice|_ in the|Lord, O|_ ye right- e-|ous: for|it be- com-|* eth well the|
 G2 GG (B2 A2) | G4 z2 (G2 | G2) G2 ^F4 | G4 A4 | z2 A2 A2 GG | A2 E2 ^F2 GG | D2 A2 B2 G2 | %14
w: just to be thank- *|ful. Praise|_ the Lord|with harp:|sing psalms un- to|Him, sing psalms un- to|Him, sing psalms un-|
 A4 (G4 | G2) A2 B4 | A4 z2 (A2 | A2) A2 G4 | G2 G2 G2 (G2 | G2) ^F2 G4 | z2 d2 d2 c2 | B2 A2 G4 | %22
w: to Him;|_ un- to|Him. For|_ the word|of the Lord is|_ _ true.|and all his|works are faith-|
 G4 z2 d2 | d2 c2 B2 A2- | A2 G2 G4 | F2 (G2 A4) | G4 z2 (D2 | _E4) D2 (G2 | G4) G4 |] %29
w: ful, and|all his works are|_ faith- ful,|are faith- *|ful. A-|* men. A-|* men.|
V:4
"_Organ" G,4 (G,4 | G,2) D,2 _E,4 | D,4 z2 (D,2 | D,2) !tenuto!B,,2 A,,3 A,, | D,4 z2 D,2 | %5
w: Re- joice|_ in the|Lord, O|_ ye right- e-|ous: for|
 G,3 F, _E,2 D,2 | C,4 B,,4 | C,2 _E,E, D,4 | G,,4 z2 (C,2 | C,2) G,,2 D,4 | _E,4 D,2 D,2 | %11
w: it be- com- eth|well the|just to be thank-|ful. Praise|_ the Lord|with harp: sing|
 D,2 C,C, D,2 B,,2 | A,,4 D,2 G,2 | G,2 ^F,F, G,2 _E,2 | D,4 (G,,4 | G,,2) ^F,,2 G,,4 | %16
w: pslams un- to Him, un-|to Him, sing|praise un- to Him, un-|to Him;|_ un- to|
 D,4 z2 (D,2 | D,2) D,2 =B,,4 | C,2 C,2 G,,>A,, B,,C, | D,4 G,,2 G,2 | G,2 F,2 _E,2 E,2 | %21
w: Him. For|_ the word|of the Lord is _ _|_ true, and|all His works are|
 D,3 C, B,,2 C,2 | G,,2 G,2 G,2 F,2 | _E,4 D,4 | C,4 G,,4 | D,2 (_E,2 D,4) | G,,4 z2 (G,,2 | %27
w: faith- * * *|ful, and all His|works are|faith- ful,|are faith- *|ful. A-|
 C,4) G,,2 (G,,2 | C,4) !fermata!G,,4 |] %29
w: * men. A-|* men.|

